Obsidian-SemiLight/actions/16s/upload-media.svg

<svg viewBox="0 0 16 16" xmlns="http://www.w3.org/2000/svg"><path d="m2 2v11.28125.71875h12v-1-1-1-1-3h-1v2l-2-2-3.34375 3.34375-1.34375-1.34375h-.03125l-3.28125 3.28125v-9.28125h6v-1zm9 5h1v-3.0859375l2 2v-1.4140625l-1.792969-1.7929688-.707031-.7070312-.707031.7070312-1.792969 1.7929688v1.4140625l2-2zm-5-3c-1.1045695 0-2 .8954305-2 2s.8954305 2 2 2 2-.8954305 2-2-.8954305-2-2-2z" fill="#4d4d4d"/></svg>

<svg xmlns="http://www.w3.org/2000/svg" viewBox="0 0 16 16">
  <defs id="defs3051">
    <style type="text/css" id="current-color-scheme">
      .ColorScheme-Text {
        color:#4d4d4d;
      }
      </style>
  </defs>
 <path style="fill:currentColor;fill-opacity:1;stroke:none" 
     d="M 2 2 L 2 13.28125 L 2 14 L 14 14 L 14 13 L 14 12 L 14 11 L 14 10 L 14 7 L 13 7 L 13 9 L 11 7 L 7.65625 10.34375 L 6.3125 9 L 6.28125 9 L 3 12.28125 L 3 3 L 9 3 L 9 2 L 2 2 z M 11 7 L 12 7 L 12 3.9140625 L 14 5.9140625 L 14 4.5 L 12.207031 2.7070312 L 11.5 2 L 10.792969 2.7070312 L 9 4.5 L 9 5.9140625 L 11 3.9140625 L 11 7 z M 6 4 C 4.8954305 4 4 4.8954305 4 6 C 4 7.1045695 4.8954305 8 6 8 C 7.1045695 8 8 7.1045695 8 6 C 8 4.8954305 7.1045695 4 6 4 z "
     class="ColorScheme-Text"
     />
</svg>
